other/turingmachine.svg

<?xml version="1.0" encoding="UTF-8" standalone="no"?>
<svg
   xmlns:dc="http://purl.org/dc/elements/1.1/"
   xmlns:cc="http://creativecommons.org/ns#"
   xmlns:rdf="http://www.w3.org/1999/02/22-rdf-syntax-ns#"
   xmlns:svg="http://www.w3.org/2000/svg"
   xmlns="http://www.w3.org/2000/svg"
   xmlns:sodipodi="http://sodipodi.sourceforge.net/DTD/sodipodi-0.dtd"
   xmlns:inkscape="http://www.inkscape.org/namespaces/inkscape"
   viewBox="0 0 48 48"
   version="1.1"
   id="svg2289"
   sodipodi:docname="turingmachine.svg"
   inkscape:version="1.0.1 (3bc2e813f5, 2020-09-07)">
  <metadata
     id="metadata2293">
    <rdf:RDF>
      <cc:Work
         rdf:about="">
        <dc:format>image/svg+xml</dc:format>
        <dc:type
           rdf:resource="http://purl.org/dc/dcmitype/StillImage" />
        <dc:title></dc:title>
      </cc:Work>
    </rdf:RDF>
  </metadata>
  <sodipodi:namedview
     pagecolor="#5a5a5a"
     bordercolor="#666666"
     borderopacity="1"
     objecttolerance="10"
     gridtolerance="10"
     guidetolerance="10"
     inkscape:pageopacity="0"
     inkscape:pageshadow="2"
     inkscape:window-width="3840"
     inkscape:window-height="2096"
     id="namedview2291"
     showgrid="false"
     inkscape:zoom="44.642858"
     inkscape:cx="19.9008"
     inkscape:cy="24"
     inkscape:window-x="0"
     inkscape:window-y="27"
     inkscape:window-maximized="1"
     inkscape:current-layer="svg2289"
     showguides="true"
     inkscape:guide-bbox="true"
     inkscape:document-rotation="0" />
  <defs
     id="defs2285">
    <style
       id="style2283">.a{fill:none;stroke:#fff;stroke-linecap:round;stroke-linejoin:round;}</style>
  </defs>
  <path
     style="fill:none;stroke:#ffffff;stroke-width:1;stroke-linecap:round;stroke-linejoin:round;stroke-miterlimit:4;stroke-dasharray:none;stroke-opacity:1"
     d="M 34.407688,22.780064 43.50003,15.623626 34.407688,8.2499451 V 13.865939 H 15.202981 c -5.015943,0 -11.5817919,5.527143 -9.1935506,12.935078 L 8.8075926,24.632663 C 8.1169578,20.075815 11.344117,17.33241 15.075628,17.051391 h 19.33206 z"
     id="path7827"
     sodipodi:nodetypes="cccccccccc" />
  <path
     style="fill:none;stroke:#ffffff;stroke-width:1;stroke-linecap:round;stroke-linejoin:round;stroke-miterlimit:4;stroke-dasharray:none;stroke-opacity:1"
     d="m 13.592314,25.219935 -9.0923441,7.156441 9.0923441,7.373677 v -5.615992 h 19.204707 c 5.015943,0 11.581792,-5.527143 9.19355,-12.935079 l -2.798161,2.168356 c 0.692507,4.651374 -2.536526,7.300254 -6.268035,7.581276 H 13.592314 Z"
     id="path7827-4"
     sodipodi:nodetypes="cccccccccc" />
</svg>

<svg xmlns="http://www.w3.org/2000/svg" viewBox="0 0 48 48"><defs><style>.a{fill:none;stroke:#fff;stroke-linecap:round;stroke-linejoin:round;}</style></defs><path class="a" d="M34.41,22.78l9.09-7.16L34.41,8.25v5.62H15.2c-5,0-11.58,5.52-9.19,12.93l2.8-2.17c-.69-4.55,2.53-7.3,6.27-7.58H34.41Z"/><path class="a" d="M13.59,25.22,4.5,32.38l9.09,7.37V34.13H32.8c5,0,11.58-5.52,9.19-12.93l-2.8,2.17c.69,4.65-2.53,7.3-6.27,7.58H13.59Z"/></svg>
